X:7
M:C
L:1/8
Q:1/4=140
K:A
cAEC (B,2 B,)||f|ecaf eccb|agaf eccf|ecaf eccb|agac B2 Bf|ecaf eccb|agaf
 efce|
cABG AcBc|AFEC (B,2 B,)||

